X: 56
T: Quelque pauvre homme II
N: Derived from Bus3052-Quelque_pauvre_homme_II.krn
C: Antoine Busnoys
%%abc-version 2.0
%%abcx-abcm2ps-target-version 5.9.1 (29 Sep 2008)
%%abc-creator hum2abc beta
%%abcx-conversion-date 2019/02/16 20:26:07
%%abc-edited-by Jesse Rodin
%%abc-edited-by Chris Gage 04-15-2015
%%abcx-initial-encoding-date 2015/05/13/
%%humdrum-veritas 510533625
%%humdrum-veritas-data 2662952815
%%linebreak <none>
%%barnumbers 0
L: 1/4
M: 2/1
Q: 1/2=120
V: 1 clef=treble
V: 2 clef=treble-8
V: 3 clef=treble-8
K: C
[V:1] d8 | 
[V:2] d8 | 
[V:3] d8 | 
[V:1] c8 | 
[V:2] a8 | 
[V:3] A4F4 | 
[V:1] B4A4- | 
[V:2] g4f4 | 
[V:3] G4A4 | 
[V:1] A4d4- | 
[V:2] d4f4 | 
[V:3] F4D4 | 
[V:1] d4^c4 | 
[V:2] e8 | 
[V:3] A8 | 
[V:1] d4f4- | 
[V:2] d8 | 
[V:3] D8 | 
[V:1] f2e2e4- | 
[V:2] z4A4 | 
[V:3] d4c4 | 
[V:1] e4d4- | 
[V:2] c4d4 | 
[V:3] A4D4 | 
[V:1] d4^c4 | 
[V:2] e8 | 
[V:3] A8 | 
[V:1] d4c2B2- | 
[V:2] d8- | 
[V:3] D8 | 
[V:1] B2A2A4- | 
[V:2] d4c4 | 
[V:3] G4A4 | 
[V:1] A2^G^FG4 | 
[V:2] B8 | 
[V:3] E8 | 
[V:1] A6GF | 
[V:2] A4d4- | 
[V:3] F4D4 | 
[V:1] E8 | 
[V:2] d4^c4 | 
[V:3] A8 | 
[V:1] D4F4- | 
[V:2] d4a4- | 
[V:3] D8 | 
[V:1] F4E4- | 
[V:2] a4g4 | 
[V:3] z4G4 | 
[V:1] E4D4- | 
[V:2] f4d4 | 
[V:3] D8 | 
[V:1] D4^C4 | 
[V:2] e8 | 
[V:3] A8 | 
[V:1] D8 | 
[V:2] d8 | 
[V:3] _B6AG | 
[V:1] z4d4 | 
[V:2] d6c2 | 
[V:3] F4G4 | 
[V:1] d8 | 
[V:2] B8 | 
[V:3] z4d4 | 
[V:1] c8 | 
[V:2] A8 | 
[V:3] e4z2A2 | 
[V:1] f8 | 
[V:2] d8 | 
[V:3] D8 | 
[V:1] e4d4 | 
[V:2] z4f4 | 
[V:3] G4F4 | 
[V:1] g8 | 
[V:2] e8 | 
[V:3] C8 | 
[V:1] f4e4- | 
[V:2] d4c4 | 
[V:3] D4A4 | 
[V:1] e2d2d4- | 
[V:2] d4f4 | 
[V:3] D4d4 | 
[V:1] d4^c4 | 
[V:2] e8 | 
[V:3] A8 | 
[V:1] d8 | 
[V:2] d8- | 
[V:3] D4G4- | 
[V:1] z4f4 | 
[V:2] d8 | 
[V:3] G2F2D4 | 
[V:1] f4e2d2 | 
[V:2] z4c4 | 
[V:3] F4C4 | 
[V:1] c4d4 | 
[V:2] A2c2B4 | 
[V:3] c2A2G4 | 
[V:1] c2A2B4 | 
[V:2] A4G4 | 
[V:3] A2F2E2G2 | 
[V:1] A2A4G2 | 
[V:2] A2c2B4 | 
[V:3] F2A2E4 | 
[V:1] A2GFE2G2 | 
[V:2] A4z2c2 | 
[V:3] F2A3GFE | 
[V:1] F4E2A2- | 
[V:2] d2a4f2- | 
[V:3] D4d4 | 
[V:1] A2G2F2ED | 
[V:2] fee3dd2- | 
[V:3] A2c4d2 | 
[V:1] E4D4 | 
[V:2] d2^c2d4- | 
[V:3] A4D4- | 
[V:1] F6G2 | 
[V:2] d4f4- | 
[V:3] D4d4- | 
[V:1] A6G2 | 
[V:2] f2g2a4- | 
[V:3] d2cBA4- | 
[V:1] A4c4- | 
[V:2] a2gfe4 | 
[V:3] A4z4 | 
[V:1] c2B2B4- | 
[V:2] c4d4- | 
[V:3] A4D4- | 
[V:1] B2A2A4- | 
[V:2] d4c4 | 
[V:3] D4A4 | 
[V:1] A4G4 | 
[V:2] B8 | 
[V:3] E4G4 | 
[V:1] A8 | 
[V:2] A8- | 
[V:3] F4D4- | 
[V:1] z4c4 | 
[V:2] A8 | 
[V:3] D4A4 | 
[V:1] d4e4 | 
[V:2] z4c4 | 
[V:3] D2G2E2A2 | 
[V:1] f4e2c2 | 
[V:2] d4e4 | 
[V:3] D4C4 | 
[V:1] d2e4f2- | 
[V:2] f2g4a2- | 
[V:3] d2c4A2- | 
[V:1] f2d4^c2 | 
[V:2] a2f2e4 | 
[V:3] A2d2A4 | 
[V:1] d4z2f2 | 
[V:2] d8 | 
[V:3] z2D2D4 | 
[V:1] e2d4g2- | 
[V:2] c2f2d2e2- | 
[V:3] A2D4C2- | 
[V:1] g2e2f2ed | 
[V:2] e2a4gf | 
[V:3] C2z2D2G2 | 
[V:1] c2d2c2f2- | 
[V:2] e2d2a4- | 
[V:3] A2_B2A2D2- | 
[V:1] f2e4d2 | 
[V:2] a2g2f4 | 
[V:3] D2c2d4 | 
[V:1] e4A4 | 
[V:2] e4z2a2 | 
[V:3] A4A2A2- | 
[V:1] z2A2c2d2 | 
[V:2] f3ga4 | 
[V:3] A2d2A2F2 | 
[V:1] e2f4e2 | 
[V:2] g2f2d3c | 
[V:3] G2D4G2- | 
[V:1] d2cBA2c2 | 
[V:2] B2A2z2a2 | 
[V:3] G2A2F2D2- | 
[V:1] d2e4f2 | 
[V:2] f2g2e2d2 | 
[V:3] D2C4D2 | 
[V:1] e2g3fed | 
[V:2] g2e3fg2- | 
[V:3] E2C4z2 | 
[V:1] e2c4f2- | 
[V:2] g2a4f2 | 
[V:3] c2A4D2- | 
[V:1] f2e3dd2- | 
[V:2] e2c4d2 | 
[V:3] D2A4d2 | 
[V:1] d2^cBc4 | 
[V:2] e8 | 
[V:3] A3AA4 | 
[V:1] d8 |]  
[V:2] d8 |]  
[V:3] D8 |]  



